X:1
T:Fuggi dunque
T:Fuggi dunque
T:Giovanni Maria Artusi
T:Source : Canzonette a 4 voci---Libro primo---Venetia---G.Vincenti---1598. Editor : André Vierendeels (17/02/14).
C:Giovanni Maria Artusi
%%score [ 1 2 3 4 ]
L:1/8
Q:1/4=70
M:4/4
K:F
V:1 treble nm="Canto 1" snm="C1"
V:2 treble nm="Canto 2" snm="C 2"
V:3 treble nm="Alto" snm="A"
V:4 treble-8 nm="Tenor" snm="T"
V:1
 z4 d2 e2 | f2 ed e4 | ^f2 f2 f2 g2 | c3 B A4 | B2 Bc d2 cB |"^-natural" ^c2 d4 c2 | d2 d2 d2 d2 | %7
w: Fug- gi|dun- que fu- ga-|ce, ch'il tuo fug-|gir m'e pa-|ce, fug- gi dun- que fu-|ga- * *|ce, ch'il tuo fug-|
 f2 _e2 d4 | d4 f2 F2- | FGAB c4 | z8 | z4 f4- | f2 f2 e4 | d8 | d8 | z2 d2 d3 d | B2 c2 d3 d | %17
w: gir m'e pa-|ce, ne pen-|* si col fug- gir||dar-|* mi do-|lo-|re,|ne men spo-|gl'ap- por- tar al|
 c3 B A4 | =B8 |"^b""^b" z2 B2 B3 A | G2 g2 f3 f | _e2 d2 d4 | d8 |] %23
w: Dio d'a- mo-|re,|ne men spo-|gl'ap- por- tar al|Dio d'a- mo-|re.|
V:2
 B2 c2 d2 cB |"^-natural""^#" ^c2 d4 c2 | d2 d2 d2 d2 | f2 _e2 d4 | d4 z2 de | f2 ed e4 | %6
w: Fug- gi dun- que fu-|ga- * *|ce, ch'il tuo fug-|gir m'e pa-|ce, fug- gi|dun- que fu- ga-|
 ^f2 f2 f2 g2 | c3 B A4 | B2 A2 d3 e | f3 f f3 f | B3 c de f2- | f2 e2 d4- | d4 c4 | B8 | A8 | %15
w: ce, ch'il tuo fug-|gir m'e pa-|ce, ne pen- si|col fug- gir, ne|pen- si col fug- gir|_ dar- mi|_ do-|lo-|re,|
 z2 B2 B3 A | G2 g2 f3 f | _e2 d2 d4 | d8 | z2 d2 d3 d | B2 c2 d3 d | c3 B A4 | =B8 |] %23
w: ne men spo-|gl'ap- por- tar al|Dio d'a- mo-|re,|ne men spo-|gl'ap- por- tar al|Dio d'a- mo-|re.|
V:3
 G2 A2 B2 AG | A8 | D2 A2 A2 B2 | A2 G2 ^F4 | G2 GA B2 AG | A8 | D2 A2 A2 B2 | A2 G2 ^F4 | %8
w: Fug- gi dun- que fu-|ga-|ce, ch'il tuo fug-|gir m'e pa-|ce, fug- gi dun- que fu-|ga-|ce, ch'il tuo fug-|gir m'e pa-|
 G2 z2 z4 | z4 z2 G2- | G2 D3 EFG | A8 | z4 A4- | A2 A2 G4 | G4 ^F4 | z2 G2 G3 ^F | G2 G2 A3 B | %17
w: ce,|ne|_ pen- si col fug-|gir|dar-|* mi do-|lo- re,|ne men spo-|gl'ap- por- tar al|
 G2 G2 ^F4 | G8 | z2 G2 G3 ^F | G2 G2 A3 B | G2 G2 ^F4 | G8 |] %23
w: Dio d'a- mo-|re,|ne men spo-|gl'ap- por- tar al|Dio d'a- mo-|re.|
V:4
 z8 |"^#" z8 | z2 d2 d2 g2 | f2 c2 d4 | G8 | z8 | z2 d2 d2 g2 | f2 c2 d4 | G2 d2 B3 c | de f4 F2 | %10
w: ||Ch'il tuo fug-|gir m'e pa-|ce,||ch'il tuo fug-|gir m'e pa-|ce, ne pen- si|col fug- gir, ne|
 G3 A Bc d2- | d2 ^c2 d4 | A8 | B6 c2 | d4 d4 | z2 G2 g3 d | _e2 e2 d3 B | c2 G2 d4 | G8 | %19
w: pen- si col fug- gir|_ dar- mi|do-|lo- *|* re,|ne men spo-|gl'ap- por- tar al|Dio d'a- mo-|re,|
 z2 G2 g3 d | _e2 e2 d3 B | c2 G2 d4 | G8 |] %23
w: ne men spo-|gl'ap- por- tar al|Dio d'a- mo-|re.|

